src/assets/filled/MoneyChange.svg

<?xml version="1.0" encoding="UTF-8"?>
<svg width="24" height="24" viewBox="0 0 24 24" xmlns="http://www.w3.org/2000/svg">
 <path d="m17 4h-10c-3 0-5 1.5-5 5v3.56c0 0.37 0.38 0.6 0.71 0.45 0.98-0.45 2.11-0.62 3.3-0.41 2.63 0.47 4.56 2.91 4.49 5.58-0.01 0.42-0.07 0.83-0.18 1.23-0.08 0.31 0.17 0.6 0.49 0.6h6.19c3 0 5-1.5 5-5v-6.01c0-3.5-2-5-5-5zm-5 10.5c-1.38 0-2.5-1.12-2.5-2.5s1.12-2.5 2.5-2.5 2.5 1.12 2.5 2.5-1.12 2.5-2.5 2.5zm7.25-0.5c0 0.41-0.34 0.75-0.75 0.75s-0.75-0.34-0.75-0.75v-4c0-0.41 0.34-0.75 0.75-0.75s0.75 0.34 0.75 0.75v4z"/>
 <path d="m5 14c-1.25 0-2.38 0.59-3.11 1.49-0.56 0.69-0.89 1.56-0.89 2.51 0 2.21 1.8 4 4 4 1.74 0 3.23-1.11 3.77-2.67 0.15-0.41 0.23-0.86 0.23-1.33 0-2.2-1.79-4-4-4zm2.36 5.74c-0.02 0.06-0.06 0.12-0.1 0.16l-0.72 0.71c-0.09 0.1-0.21 0.14-0.34 0.14s-0.26-0.04-0.35-0.14c-0.16-0.15-0.18-0.39-0.08-0.57h-2.01c-0.64 0-1.16-0.52-1.16-1.17v-0.1c0-0.28 0.22-0.49 0.49-0.49s0.49 0.21 0.49 0.49v0.1c0 0.11 0.08 0.2 0.19 0.2h2.01c-0.1-0.19-0.08-0.42 0.08-0.58 0.19-0.19 0.5-0.19 0.68 0l0.72 0.72c0.04 0.04 0.08 0.1 0.11 0.16 0.04 0.11 0.04 0.25-0.01 0.37zm0.04-2.51c0 0.28-0.22 0.49-0.49 0.49s-0.49-0.21-0.49-0.49v-0.1c0-0.11-0.08-0.2-0.19-0.2h-2c0.1 0.19 0.08 0.42-0.08 0.58-0.09 0.09-0.21 0.14-0.35 0.14-0.12 0-0.25-0.05-0.34-0.14l-0.72-0.72c-0.04-0.04-0.08-0.1-0.11-0.16-0.04-0.12-0.04-0.25 0-0.37 0.03-0.05 0.06-0.12 0.11-0.16l0.72-0.71c0.19-0.2 0.5-0.2 0.68 0 0.16 0.15 0.18 0.39 0.08 0.57h2.01c0.64 0 1.16 0.52 1.16 1.17v0.1h0.01z"/>
</svg>

<svg width="24" height="24" viewBox="0 0 24 24"  xmlns="http://www.w3.org/2000/svg">
<path d="M17 4H7C4 4 2 5.5 2 9V12.56C2 12.93 2.38 13.16 2.71 13.01C3.69 12.56 4.82 12.39 6.01 12.6C8.64 13.07 10.57 15.51 10.5 18.18C10.49 18.6 10.43 19.01 10.32 19.41C10.24 19.72 10.49 20.01 10.81 20.01H17C20 20.01 22 18.51 22 15.01V9C22 5.5 20 4 17 4ZM12 14.5C10.62 14.5 9.5 13.38 9.5 12C9.5 10.62 10.62 9.5 12 9.5C13.38 9.5 14.5 10.62 14.5 12C14.5 13.38 13.38 14.5 12 14.5ZM19.25 14C19.25 14.41 18.91 14.75 18.5 14.75C18.09 14.75 17.75 14.41 17.75 14V10C17.75 9.59 18.09 9.25 18.5 9.25C18.91 9.25 19.25 9.59 19.25 10V14Z" />
<path d="M5 14C3.75 14 2.62 14.59 1.89 15.49C1.33 16.18 1 17.05 1 18C1 20.21 2.8 22 5 22C6.74 22 8.23 20.89 8.77 19.33C8.92 18.92 9 18.47 9 18C9 15.8 7.21 14 5 14ZM7.36 19.74C7.34 19.8 7.3 19.86 7.26 19.9L6.54 20.61C6.45 20.71 6.33 20.75 6.2 20.75C6.07 20.75 5.94 20.71 5.85 20.61C5.69 20.46 5.67 20.22 5.77 20.04H3.76C3.12 20.04 2.6 19.52 2.6 18.87V18.77C2.6 18.49 2.82 18.28 3.09 18.28C3.36 18.28 3.58 18.49 3.58 18.77V18.87C3.58 18.98 3.66 19.07 3.77 19.07H5.78C5.68 18.88 5.7 18.65 5.86 18.49C6.05 18.3 6.36 18.3 6.54 18.49L7.26 19.21C7.3 19.25 7.34 19.31 7.37 19.37C7.41 19.48 7.41 19.62 7.36 19.74ZM7.4 17.23C7.4 17.51 7.18 17.72 6.91 17.72C6.64 17.72 6.42 17.51 6.42 17.23V17.13C6.42 17.02 6.34 16.93 6.23 16.93H4.23C4.33 17.12 4.31 17.35 4.15 17.51C4.06 17.6 3.94 17.65 3.8 17.65C3.68 17.65 3.55 17.6 3.46 17.51L2.74 16.79C2.7 16.75 2.66 16.69 2.63 16.63C2.59 16.51 2.59 16.38 2.63 16.26C2.66 16.21 2.69 16.14 2.74 16.1L3.46 15.39C3.65 15.19 3.96 15.19 4.14 15.39C4.3 15.54 4.32 15.78 4.22 15.96H6.23C6.87 15.96 7.39 16.48 7.39 17.13V17.23H7.4Z" />
</svg>
